tn/double-caret-left-circle.svg

<svg viewBox="0 0 15 15" fill="none" xmlns="http://www.w3.org/2000/svg" height="1em" width="1em">
  <path fill-rule="evenodd" clip-rule="evenodd" d="M15 7.5C15 3.35786 11.6421 0 7.5 0C3.35786 0 0 3.35786 0 7.5C0 11.6421 3.35786 15 7.5 15C11.6421 15 15 11.6421 15 7.5ZM9.49992 4.79285L6.79282 7.49995L9.49992 10.2071L10.207 9.49995L8.20703 7.49995L10.207 5.49995L9.49992 4.79285ZM6.49992 4.79285L3.79282 7.49995L6.49992 10.2071L7.20703 9.49995L5.20703 7.49995L7.20703 5.49995L6.49992 4.79285Z" fill="black"/>
</svg>

<svg viewBox="0 0 15 15" fill="none" xmlns="http://www.w3.org/2000/svg" height="1em" width="1em">
  <path fill-rule="evenodd" clip-rule="evenodd" d="M15 7.5a7.5 7.5 0 1 0-15 0 7.5 7.5 0 0 0 15 0ZM9.5 4.793 6.793 7.5 9.5 10.207l.707-.707-2-2 2-2-.707-.707Zm-3 0L3.793 7.5 6.5 10.207l.707-.707-2-2 2-2-.707-.707Z" fill="#000"/>
</svg>
